images/3234018.svg

<?xml version="1.0" encoding="UTF-8"?>
<svg xmlns="http://www.w3.org/2000/svg" xmlns:xlink="http://www.w3.org/1999/xlink" width="300pt" height="300pt" viewBox="0 0 300 300" version="1.1">
<defs>
<g>
<symbol overflow="visible" id="glyph0-0">
<path style="stroke:none;" d="M 0.453125 1.59375 L 0.453125 -6.34375 L 4.953125 -6.34375 L 4.953125 1.59375 Z M 0.953125 1.09375 L 4.453125 1.09375 L 4.453125 -5.84375 L 0.953125 -5.84375 Z M 0.953125 1.09375 "/>
</symbol>
<symbol overflow="visible" id="glyph0-1">
<path style="stroke:none;" d="M 0.890625 -6.5625 L 2.078125 -6.5625 L 4.984375 -1.078125 L 4.984375 -6.5625 L 5.84375 -6.5625 L 5.84375 0 L 4.65625 0 L 1.75 -5.484375 L 1.75 0 L 0.890625 0 Z M 0.890625 -6.5625 "/>
</symbol>
<symbol overflow="visible" id="glyph0-2">
<path style="stroke:none;" d="M 0.890625 -6.5625 L 1.765625 -6.5625 L 1.765625 -3.875 L 5 -3.875 L 5 -6.5625 L 5.890625 -6.5625 L 5.890625 0 L 5 0 L 5 -3.125 L 1.765625 -3.125 L 1.765625 0 L 0.890625 0 Z M 0.890625 -6.5625 "/>
</symbol>
<symbol overflow="visible" id="glyph0-3">
<path style="stroke:none;" d="M 3.546875 -5.953125 C 2.898438 -5.953125 2.382812 -5.710938 2 -5.234375 C 1.625 -4.753906 1.4375 -4.101562 1.4375 -3.28125 C 1.4375 -2.445312 1.625 -1.789062 2 -1.3125 C 2.382812 -0.832031 2.898438 -0.59375 3.546875 -0.59375 C 4.191406 -0.59375 4.703125 -0.832031 5.078125 -1.3125 C 5.453125 -1.789062 5.640625 -2.445312 5.640625 -3.28125 C 5.640625 -4.101562 5.453125 -4.753906 5.078125 -5.234375 C 4.703125 -5.710938 4.191406 -5.953125 3.546875 -5.953125 Z M 3.546875 -6.6875 C 4.460938 -6.6875 5.195312 -6.375 5.75 -5.75 C 6.300781 -5.132812 6.578125 -4.3125 6.578125 -3.28125 C 6.578125 -2.238281 6.300781 -1.410156 5.75 -0.796875 C 5.195312 -0.179688 4.460938 0.125 3.546875 0.125 C 2.617188 0.125 1.878906 -0.179688 1.328125 -0.796875 C 0.773438 -1.410156 0.5 -2.238281 0.5 -3.28125 C 0.5 -4.3125 0.773438 -5.132812 1.328125 -5.75 C 1.878906 -6.375 2.617188 -6.6875 3.546875 -6.6875 Z M 3.546875 -6.6875 "/>
</symbol>
</g>
</defs>
<g id="surface36969">
<rect x="0" y="0" width="300" height="300" style="fill:rgb(100%,100%,100%);fill-opacity:1;stroke:none;"/>
<path style="fill:none;stroke-width:1.2;stroke-linecap:butt;stroke-linejoin:miter;stroke:rgb(0%,0%,0%);stroke-opacity:1;stroke-miterlimit:10;" d="M 48.511719 192.113281 L 49.808594 182.210938 "/>
<path style="fill:none;stroke-width:1.2;stroke-linecap:butt;stroke-linejoin:miter;stroke:rgb(0%,0%,100%);stroke-opacity:1;stroke-miterlimit:10;" d="M 49.808594 182.210938 L 51.109375 172.304688 "/>
<path style="fill:none;stroke-width:1.2;stroke-linecap:butt;stroke-linejoin:miter;stroke:rgb(0%,0%,100%);stroke-opacity:1;stroke-miterlimit:10;" d="M 51.109375 172.304688 L 43.179688 166.230469 "/>
<path style="fill:none;stroke-width:1.2;stroke-linecap:butt;stroke-linejoin:miter;stroke:rgb(0%,0%,0%);stroke-opacity:1;stroke-miterlimit:10;" d="M 43.179688 166.230469 L 35.25 160.15625 "/>
<path style="fill:none;stroke-width:1.2;stroke-linecap:butt;stroke-linejoin:miter;stroke:rgb(0%,0%,100%);stroke-opacity:1;stroke-miterlimit:10;" d="M 51.109375 172.304688 L 60.332031 168.476562 "/>
<path style="fill:none;stroke-width:1.2;stroke-linecap:butt;stroke-linejoin:miter;stroke:rgb(0%,0%,0%);stroke-opacity:1;stroke-miterlimit:10;" d="M 60.332031 168.476562 L 69.558594 164.648438 "/>
<path style=" stroke:none;fill-rule:nonzero;fill:rgb(100%,100%,100%);fill-opacity:1;" d="M 48.109375 166.804688 L 55.109375 166.804688 L 55.109375 177.804688 L 48.109375 177.804688 Z M 48.109375 166.804688 "/>
<g style="fill:rgb(0%,0%,100%);fill-opacity:1;">
  <use xlink:href="#glyph0-1" x="48.109375" y="175.467773"/>
</g>
<path style="fill:none;stroke-width:1.2;stroke-linecap:butt;stroke-linejoin:miter;stroke:rgb(0%,0%,0%);stroke-opacity:1;stroke-miterlimit:10;" d="M 69.558594 164.648438 L 72.15625 144.839844 "/>
<path style="fill:none;stroke-width:1.2;stroke-linecap:butt;stroke-linejoin:miter;stroke:rgb(0%,0%,0%);stroke-opacity:1;stroke-miterlimit:10;" d="M 72.15625 144.839844 L 56.296875 132.6875 "/>
<path style="fill:none;stroke-width:1.2;stroke-linecap:butt;stroke-linejoin:miter;stroke:rgb(0%,0%,0%);stroke-opacity:1;stroke-miterlimit:10;" d="M 73.429688 139.894531 L 60.742188 130.171875 "/>
<path style="fill:none;stroke-width:1.2;stroke-linecap:butt;stroke-linejoin:miter;stroke:rgb(0%,0%,0%);stroke-opacity:1;stroke-miterlimit:10;" d="M 90.605469 137.183594 L 72.15625 144.839844 "/>
<path style="fill:none;stroke-width:1.2;stroke-linecap:butt;stroke-linejoin:miter;stroke:rgb(0%,0%,0%);stroke-opacity:1;stroke-miterlimit:10;" d="M 56.296875 132.6875 L 58.890625 112.878906 "/>
<path style="fill:none;stroke-width:1.2;stroke-linecap:butt;stroke-linejoin:miter;stroke:rgb(0%,0%,0%);stroke-opacity:1;stroke-miterlimit:10;" d="M 58.890625 112.878906 L 77.34375 105.222656 "/>
<path style="fill:none;stroke-width:1.2;stroke-linecap:butt;stroke-linejoin:miter;stroke:rgb(0%,0%,0%);stroke-opacity:1;stroke-miterlimit:10;" d="M 62.539062 116.457031 L 77.300781 110.328125 "/>
<path style="fill:none;stroke-width:1.2;stroke-linecap:butt;stroke-linejoin:miter;stroke:rgb(0%,0%,0%);stroke-opacity:1;stroke-miterlimit:10;" d="M 77.34375 105.222656 L 93.203125 117.375 "/>
<path style="fill:none;stroke-width:1.2;stroke-linecap:butt;stroke-linejoin:miter;stroke:rgb(0%,0%,0%);stroke-opacity:1;stroke-miterlimit:10;" d="M 93.203125 117.375 L 90.605469 137.183594 "/>
<path style="fill:none;stroke-width:1.2;stroke-linecap:butt;stroke-linejoin:miter;stroke:rgb(0%,0%,0%);stroke-opacity:1;stroke-miterlimit:10;" d="M 88.28125 118.746094 L 86.207031 134.589844 "/>
<path style="fill:none;stroke-width:1.2;stroke-linecap:butt;stroke-linejoin:miter;stroke:rgb(0%,0%,0%);stroke-opacity:1;stroke-miterlimit:10;" d="M 90.605469 137.183594 L 106.464844 149.335938 "/>
<path style="fill:none;stroke-width:1.2;stroke-linecap:butt;stroke-linejoin:miter;stroke:rgb(0%,0%,0%);stroke-opacity:1;stroke-miterlimit:10;" d="M 106.464844 149.335938 L 105.167969 159.238281 "/>
<path style="fill:none;stroke-width:1.2;stroke-linecap:butt;stroke-linejoin:miter;stroke:rgb(0%,0%,100%);stroke-opacity:1;stroke-miterlimit:10;" d="M 105.167969 159.238281 L 103.871094 169.144531 "/>
<path style="fill:none;stroke-width:1.2;stroke-linecap:butt;stroke-linejoin:miter;stroke:rgb(0%,0%,0%);stroke-opacity:1;stroke-miterlimit:10;" d="M 110.867188 151.925781 L 109.828125 159.847656 "/>
<path style="fill:none;stroke-width:1.2;stroke-linecap:butt;stroke-linejoin:miter;stroke:rgb(0%,0%,100%);stroke-opacity:1;stroke-miterlimit:10;" d="M 109.828125 159.847656 L 108.789062 167.773438 "/>
<path style="fill:none;stroke-width:1.2;stroke-linecap:butt;stroke-linejoin:miter;stroke:rgb(0%,0%,100%);stroke-opacity:1;stroke-miterlimit:10;" d="M 124.917969 141.675781 L 115.691406 145.503906 "/>
<path style="fill:none;stroke-width:1.2;stroke-linecap:butt;stroke-linejoin:miter;stroke:rgb(0%,0%,0%);stroke-opacity:1;stroke-miterlimit:10;" d="M 115.691406 145.503906 L 106.464844 149.335938 "/>
<path style="fill:none;stroke-width:1.2;stroke-linecap:butt;stroke-linejoin:miter;stroke:rgb(0%,0%,100%);stroke-opacity:1;stroke-miterlimit:10;" d="M 103.871094 169.144531 L 111.796875 175.21875 "/>
<path style="fill:none;stroke-width:1.2;stroke-linecap:butt;stroke-linejoin:miter;stroke:rgb(0%,0%,0%);stroke-opacity:1;stroke-miterlimit:10;" d="M 111.796875 175.21875 L 119.726562 181.292969 "/>
<path style=" stroke:none;fill-rule:nonzero;fill:rgb(100%,100%,100%);fill-opacity:1;" d="M 100.871094 163.644531 L 107.871094 163.644531 L 107.871094 174.644531 L 100.871094 174.644531 Z M 100.871094 163.644531 "/>
<g style="fill:rgb(0%,0%,100%);fill-opacity:1;">
  <use xlink:href="#glyph0-1" x="100.871094" y="172.307617"/>
</g>
<path style="fill:none;stroke-width:1.2;stroke-linecap:butt;stroke-linejoin:miter;stroke:rgb(0%,0%,0%);stroke-opacity:1;stroke-miterlimit:10;" d="M 119.726562 181.292969 L 138.179688 173.636719 "/>
<path style="fill:none;stroke-width:1.2;stroke-linecap:butt;stroke-linejoin:miter;stroke:rgb(0%,0%,0%);stroke-opacity:1;stroke-miterlimit:10;" d="M 119.769531 176.1875 L 134.53125 170.0625 "/>
<path style="fill:none;stroke-width:1.2;stroke-linecap:butt;stroke-linejoin:miter;stroke:rgb(0%,0%,0%);stroke-opacity:1;stroke-miterlimit:10;" d="M 138.179688 173.636719 L 140.773438 153.828125 "/>
<path style="fill:none;stroke-width:1.2;stroke-linecap:butt;stroke-linejoin:miter;stroke:rgb(0%,0%,0%);stroke-opacity:1;stroke-miterlimit:10;" d="M 140.773438 153.828125 L 132.84375 147.753906 "/>
<path style="fill:none;stroke-width:1.2;stroke-linecap:butt;stroke-linejoin:miter;stroke:rgb(0%,0%,100%);stroke-opacity:1;stroke-miterlimit:10;" d="M 132.84375 147.753906 L 124.917969 141.675781 "/>
<path style="fill:none;stroke-width:1.2;stroke-linecap:butt;stroke-linejoin:miter;stroke:rgb(0%,0%,0%);stroke-opacity:1;stroke-miterlimit:10;" d="M 136.328125 156.34375 L 129.984375 151.484375 "/>
<path style="fill:none;stroke-width:1.2;stroke-linecap:butt;stroke-linejoin:miter;stroke:rgb(0%,0%,100%);stroke-opacity:1;stroke-miterlimit:10;" d="M 129.984375 151.484375 L 123.644531 146.625 "/>
<path style="fill:none;stroke-width:1.2;stroke-linecap:butt;stroke-linejoin:miter;stroke:rgb(0%,0%,0%);stroke-opacity:1;stroke-miterlimit:10;" d="M 140.773438 153.828125 L 150 150 "/>
<path style="fill:none;stroke-width:1.2;stroke-linecap:butt;stroke-linejoin:miter;stroke:rgb(0%,0%,100%);stroke-opacity:1;stroke-miterlimit:10;" d="M 150 150 L 159.226562 146.171875 "/>
<path style=" stroke:none;fill-rule:nonzero;fill:rgb(100%,100%,100%);fill-opacity:1;" d="M 121.917969 136.175781 L 128.917969 136.175781 L 128.917969 147.175781 L 121.917969 147.175781 Z M 121.917969 136.175781 "/>
<g style="fill:rgb(0%,0%,100%);fill-opacity:1;">
  <use xlink:href="#glyph0-1" x="121.917969" y="144.838867"/>
</g>
<path style="fill:none;stroke-width:1.2;stroke-linecap:butt;stroke-linejoin:miter;stroke:rgb(0%,0%,100%);stroke-opacity:1;stroke-miterlimit:10;" d="M 159.226562 146.171875 L 167.15625 152.246094 "/>
<path style="fill:none;stroke-width:1.2;stroke-linecap:butt;stroke-linejoin:miter;stroke:rgb(0%,0%,0%);stroke-opacity:1;stroke-miterlimit:10;" d="M 167.15625 152.246094 L 175.082031 158.324219 "/>
<path style=" stroke:none;fill-rule:nonzero;fill:rgb(100%,100%,100%);fill-opacity:1;" d="M 152.226562 140.671875 L 166.226562 140.671875 L 166.226562 151.671875 L 152.226562 151.671875 Z M 152.226562 140.671875 "/>
<g style="fill:rgb(0%,0%,100%);fill-opacity:1;">
  <use xlink:href="#glyph0-1" x="152.226562" y="149.334961"/>
  <use xlink:href="#glyph0-2" x="159.204102" y="149.334961"/>
</g>
<path style="fill:none;stroke-width:1.2;stroke-linecap:butt;stroke-linejoin:miter;stroke:rgb(0%,0%,0%);stroke-opacity:1;stroke-miterlimit:10;" d="M 175.082031 158.324219 L 193.535156 150.664062 "/>
<path style="fill:none;stroke-width:1.2;stroke-linecap:butt;stroke-linejoin:miter;stroke:rgb(0%,0%,0%);stroke-opacity:1;stroke-miterlimit:10;" d="M 193.535156 150.664062 L 209.394531 162.816406 "/>
<path style="fill:none;stroke-width:1.2;stroke-linecap:butt;stroke-linejoin:miter;stroke:rgb(0%,0%,0%);stroke-opacity:1;stroke-miterlimit:10;" d="M 197.980469 148.148438 L 210.667969 157.871094 "/>
<path style="fill:none;stroke-width:1.2;stroke-linecap:butt;stroke-linejoin:miter;stroke:rgb(0%,0%,0%);stroke-opacity:1;stroke-miterlimit:10;" d="M 196.128906 130.855469 L 193.535156 150.664062 "/>
<path style="fill:none;stroke-width:1.2;stroke-linecap:butt;stroke-linejoin:miter;stroke:rgb(0%,0%,0%);stroke-opacity:1;stroke-miterlimit:10;" d="M 209.394531 162.816406 L 227.84375 155.160156 "/>
<path style="fill:none;stroke-width:1.2;stroke-linecap:butt;stroke-linejoin:miter;stroke:rgb(0%,0%,0%);stroke-opacity:1;stroke-miterlimit:10;" d="M 209.394531 162.816406 L 208.097656 172.722656 "/>
<path style="fill:none;stroke-width:1.2;stroke-linecap:butt;stroke-linejoin:miter;stroke:rgb(100%,0%,0%);stroke-opacity:1;stroke-miterlimit:10;" d="M 208.097656 172.722656 L 206.796875 182.625 "/>
<path style="fill:none;stroke-width:1.2;stroke-linecap:butt;stroke-linejoin:miter;stroke:rgb(0%,0%,0%);stroke-opacity:1;stroke-miterlimit:10;" d="M 227.84375 155.160156 L 230.441406 135.351562 "/>
<path style="fill:none;stroke-width:1.2;stroke-linecap:butt;stroke-linejoin:miter;stroke:rgb(0%,0%,0%);stroke-opacity:1;stroke-miterlimit:10;" d="M 223.445312 152.570312 L 225.519531 136.722656 "/>
<path style="fill:none;stroke-width:1.2;stroke-linecap:butt;stroke-linejoin:miter;stroke:rgb(0%,0%,0%);stroke-opacity:1;stroke-miterlimit:10;" d="M 230.441406 135.351562 L 214.582031 123.199219 "/>
<path style="fill:none;stroke-width:1.2;stroke-linecap:butt;stroke-linejoin:miter;stroke:rgb(0%,0%,0%);stroke-opacity:1;stroke-miterlimit:10;" d="M 230.441406 135.351562 L 239.667969 131.523438 "/>
<path style="fill:none;stroke-width:1.2;stroke-linecap:butt;stroke-linejoin:miter;stroke:rgb(100%,0%,0%);stroke-opacity:1;stroke-miterlimit:10;" d="M 239.667969 131.523438 L 248.890625 127.695312 "/>
<path style="fill:none;stroke-width:1.2;stroke-linecap:butt;stroke-linejoin:miter;stroke:rgb(0%,0%,0%);stroke-opacity:1;stroke-miterlimit:10;" d="M 214.582031 123.199219 L 196.128906 130.855469 "/>
<path style="fill:none;stroke-width:1.2;stroke-linecap:butt;stroke-linejoin:miter;stroke:rgb(0%,0%,0%);stroke-opacity:1;stroke-miterlimit:10;" d="M 214.539062 128.308594 L 199.777344 134.433594 "/>
<path style="fill:none;stroke-width:1.2;stroke-linecap:butt;stroke-linejoin:miter;stroke:rgb(100%,0%,0%);stroke-opacity:1;stroke-miterlimit:10;" d="M 248.890625 127.695312 L 256.820312 133.769531 "/>
<path style="fill:none;stroke-width:1.2;stroke-linecap:butt;stroke-linejoin:miter;stroke:rgb(0%,0%,0%);stroke-opacity:1;stroke-miterlimit:10;" d="M 256.820312 133.769531 L 264.75 139.84375 "/>
<path style=" stroke:none;fill-rule:nonzero;fill:rgb(100%,100%,100%);fill-opacity:1;" d="M 244.890625 122.195312 L 252.890625 122.195312 L 252.890625 133.195312 L 244.890625 133.195312 Z M 244.890625 122.195312 "/>
<g style="fill:rgb(100%,0%,0%);fill-opacity:1;">
  <use xlink:href="#glyph0-3" x="244.890625" y="130.858398"/>
</g>
<path style="fill:none;stroke-width:1.2;stroke-linecap:butt;stroke-linejoin:miter;stroke:rgb(100%,0%,0%);stroke-opacity:1;stroke-miterlimit:10;" d="M 206.796875 182.625 L 214.726562 188.703125 "/>
<path style="fill:none;stroke-width:1.2;stroke-linecap:butt;stroke-linejoin:miter;stroke:rgb(0%,0%,0%);stroke-opacity:1;stroke-miterlimit:10;" d="M 214.726562 188.703125 L 222.65625 194.777344 "/>
<path style=" stroke:none;fill-rule:nonzero;fill:rgb(100%,100%,100%);fill-opacity:1;" d="M 202.796875 177.125 L 210.796875 177.125 L 210.796875 188.125 L 202.796875 188.125 Z M 202.796875 177.125 "/>
<g style="fill:rgb(100%,0%,0%);fill-opacity:1;">
  <use xlink:href="#glyph0-3" x="202.796875" y="185.788086"/>
</g>
</g>
</svg>

<svg xmlns="http://www.w3.org/2000/svg" xmlns:xlink="http://www.w3.org/1999/xlink" width="300pt" height="300pt" viewBox="0 0 300 300"><defs><symbol overflow="visible"><path d="M.453 1.594v-7.938h4.5v7.938zm.5-.5h3.5v-6.938h-3.5zm0 0"/></symbol><symbol overflow="visible" id="a"><path d="M.89-6.563H2.08l2.906 5.485v-5.484h.86V0H4.656L1.75-5.484V0H.89zm0 0"/></symbol><symbol overflow="visible" id="b"><path d="M.89-6.563h.876v2.688H5v-2.688h.89V0H5v-3.125H1.766V0H.89zm0 0"/></symbol><symbol overflow="visible" id="c"><path d="M3.547-5.953c-.65 0-1.164.242-1.547.72-.375.48-.563 1.13-.563 1.952 0 .835.188 1.49.563 1.967.383.48.898.72 1.547.72.644 0 1.156-.24 1.53-.72.376-.476.564-1.132.564-1.968 0-.822-.187-1.474-.562-1.954-.375-.477-.887-.72-1.53-.72zm0-.734c.914 0 1.648.312 2.203.937.55.617.828 1.438.828 2.47 0 1.042-.277 1.87-.828 2.483-.555.617-1.29.922-2.203.922-.93 0-1.668-.305-2.22-.922C.774-1.41.5-2.237.5-3.28c0-1.033.273-1.853.828-2.47.55-.625 1.29-.938 2.22-.938zm0 0"/></symbol></defs><g><path fill="#fff" d="M0 0h300v300H0z"/><path d="M48.512 192.113l1.297-9.902" stroke-width="1.2" stroke="#000" stroke-miterlimit="10" fill="none"/><path d="M49.81 182.21l1.3-9.905M51.11 172.305l-7.93-6.075" stroke-width="1.2" stroke="#00f" stroke-miterlimit="10" fill="none"/><path d="M43.18 166.23l-7.93-6.074" stroke-width="1.2" stroke="#000" stroke-miterlimit="10" fill="none"/><path d="M51.11 172.305l9.222-3.828" stroke-width="1.2" stroke="#00f" stroke-miterlimit="10" fill="none"/><path d="M60.332 168.477l9.227-3.83" stroke-width="1.2" stroke="#000" stroke-miterlimit="10" fill="none"/><path d="M48.11 166.805h7v11h-7zm0 0" fill="#fff"/><use xlink:href="#a" x="48.109" y="175.468" fill="#00f"/><path d="M69.56 164.648l2.596-19.808M72.156 144.84l-15.86-12.153M73.43 139.895l-12.688-9.723M90.605 137.184l-18.45 7.656M56.297 132.688l2.594-19.81M58.89 112.88l18.454-7.657M62.54 116.457l14.76-6.13M77.344 105.223l15.86 12.152M93.203 117.375l-2.598 19.81M88.28 118.746l-2.073 15.844M90.605 137.184l15.86 12.152M106.465 149.336l-1.297 9.902" stroke-width="1.2" stroke="#000" stroke-miterlimit="10" fill="none"/><path d="M105.168 159.238l-1.297 9.907" stroke-width="1.2" stroke="#00f" stroke-miterlimit="10" fill="none"/><path d="M110.867 151.926l-1.04 7.922" stroke-width="1.2" stroke="#000" stroke-miterlimit="10" fill="none"/><path d="M109.828 159.848l-1.04 7.925M124.918 141.676l-9.227 3.828" stroke-width="1.2" stroke="#00f" stroke-miterlimit="10" fill="none"/><path d="M115.69 145.504l-9.225 3.832" stroke-width="1.2" stroke="#000" stroke-miterlimit="10" fill="none"/><path d="M103.87 169.145l7.927 6.074" stroke-width="1.2" stroke="#00f" stroke-miterlimit="10" fill="none"/><path d="M111.797 175.22l7.93 6.073" stroke-width="1.2" stroke="#000" stroke-miterlimit="10" fill="none"/><path d="M100.87 163.645h7v11h-7zm0 0" fill="#fff"/><use xlink:href="#a" x="100.871" y="172.308" fill="#00f"/><path d="M119.727 181.293l18.453-7.656M119.77 176.188l14.76-6.125M138.18 173.637l2.593-19.81M140.773 153.828l-7.93-6.074" stroke-width="1.2" stroke="#000" stroke-miterlimit="10" fill="none"/><path d="M132.844 147.754l-7.926-6.078" stroke-width="1.2" stroke="#00f" stroke-miterlimit="10" fill="none"/><path d="M136.328 156.344l-6.344-4.86" stroke-width="1.2" stroke="#000" stroke-miterlimit="10" fill="none"/><path d="M129.984 151.484l-6.34-4.86" stroke-width="1.2" stroke="#00f" stroke-miterlimit="10" fill="none"/><path d="M140.773 153.828L150 150" stroke-width="1.2" stroke="#000" stroke-miterlimit="10" fill="none"/><path d="M150 150l9.227-3.828" stroke-width="1.2" stroke="#00f" stroke-miterlimit="10" fill="none"/><path d="M121.918 136.176h7v11h-7zm0 0" fill="#fff"/><use xlink:href="#a" x="121.918" y="144.839" fill="#00f"/><path d="M159.227 146.172l7.93 6.074" stroke-width="1.2" stroke="#00f" stroke-miterlimit="10" fill="none"/><path d="M167.156 152.246l7.926 6.078" stroke-width="1.2" stroke="#000" stroke-miterlimit="10" fill="none"/><path d="M152.227 140.672h14v11h-14zm0 0" fill="#fff"/><g fill="#00f"><use xlink:href="#a" x="152.227" y="149.335"/><use xlink:href="#b" x="159.204" y="149.335"/></g><path d="M175.082 158.324l18.453-7.66M193.535 150.664l15.86 12.152M197.98 148.148l12.688 9.723M196.13 130.855l-2.595 19.81M209.395 162.816l18.45-7.656M209.395 162.816l-1.297 9.907" stroke-width="1.2" stroke="#000" stroke-miterlimit="10" fill="none"/><path d="M208.098 172.723l-1.3 9.902" stroke-width="1.2" stroke="#f00" stroke-miterlimit="10" fill="none"/><path d="M227.844 155.16l2.597-19.808M223.445 152.57l2.075-15.847M230.44 135.352L214.583 123.2M230.44 135.352l9.228-3.83" stroke-width="1.2" stroke="#000" stroke-miterlimit="10" fill="none"/><path d="M239.668 131.523l9.223-3.828" stroke-width="1.2" stroke="#f00" stroke-miterlimit="10" fill="none"/><path d="M214.582 123.2l-18.453 7.655M214.54 128.31l-14.763 6.124" stroke-width="1.2" stroke="#000" stroke-miterlimit="10" fill="none"/><path d="M248.89 127.695l7.93 6.075" stroke-width="1.2" stroke="#f00" stroke-miterlimit="10" fill="none"/><path d="M256.82 133.77l7.93 6.074" stroke-width="1.2" stroke="#000" stroke-miterlimit="10" fill="none"/><path d="M244.89 122.195h8v11h-8zm0 0" fill="#fff"/><use xlink:href="#c" x="244.891" y="130.858" fill="#f00"/><path d="M206.797 182.625l7.93 6.078" stroke-width="1.2" stroke="#f00" stroke-miterlimit="10" fill="none"/><path d="M214.727 188.703l7.93 6.074" stroke-width="1.2" stroke="#000" stroke-miterlimit="10" fill="none"/><path d="M202.797 177.125h8v11h-8zm0 0" fill="#fff"/><use xlink:href="#c" x="202.797" y="185.788" fill="#f00"/></g></svg>
